X:1
T:Colonel David Stewart of Garth's Reel
T:Colonel David Stewart of Garth's Reel
T:Niel Gow (1727-1807)
C:Niel Gow (1727-1807)
L:1/8
M:4/4
K:A
V:1 treble 
V:1
 a | e2 Ac/d/ eAcA | d<fe>c B/B/B Ba |{f} e2 Ac/d/ eAcA | dfec A/A/A Aa |{f} e2 Ac/d/ eAcA | %6
 d<fe>c B/B/B Ba |{f} e2 Ac/d/ eAcA | dfec A/A/A A || d | c(ee)a face | d<f Te>c B/B/B B>d | %12
 c(ee>)a faec | dfec A/A/A A>d | c(ee>)a face | d<f Te>c B/B/B B>d | ceae faec | %17
 d<f Te>c A/A/A A || %18

